X: 1
T:Use and Abuse
M:6/8
L:1/8
K:G
d|gfgGBd|dcBA2D|GBddcB|B3A2d|gfgGBd|dcBA2d|eagfef|(g3g2):||:g|feddgg|fed
dgD|GBddcB|B2A3A|gfgGBd|dcBA2d|e<agfef|(g3g2):||
% Output from ABC2Win  Version 2.1 i on 3/9/2000
